!!!OTL: DICH SANFTER JUENGLING LIEBT MEIN HERZ
!!!ARE: Europa, Mitteleuropa, Deutschland
!!!SCT: B0372
!!!YEM: Copyright 1995, estate of Helmut Schaffrath.
**kern
*ICvox
*Ivox
*M3/4
*k[b-e-a-]
*E-:
=1
{4b-
4b-
4b-
=2
4b-
4gg
4ee-
=3
8ee-
8dd
4ff
4a-
=4
4a-
4g
4r}
=5
{4b-
4b-
4b-
=6
4b-
8cc
8b-
8a-
8g
=7
12f
12g
12a-
4g
4r}
=8
{4b-
4cc
4dd-
=9
4dd-
4cc
8ee-
8cc
=10
4b-
4cc
4dd-
=11
4dd-
4cc
4r}
=12
{4cc
4dd
4ee-
=13
4ee-
4dd
8ff
8dd
=14
4cc
4dd
4ee-
=15
4ee-
4dd
4r}
=16
{4ff
8ee-
8dd
8cc
8b-
=17
2ee-
8cc
8a-
=18
2g
4f
=19
4e-
2r}
==
!!!AGN: Liebes - Lied, Liebes - Lust
!!!ONB: ESAC (Essen Associative Code) Database: BOEHME
!!!AMT: simple triple
!!!AIN: vox
!!!EED: Helmut Schaffrath
!!!EEV: 1.0
*-
